images/usecases/health-care/sport-complex-2.svg

<svg width="285" height="210" viewBox="0 0 285 210" fill="none" xmlns="http://www.w3.org/2000/svg">
<path d="M110.75 115.467C110.75 70.0419 147.575 33.2173 193 33.2173C238.425 33.2173 275.25 70.0419 275.25 115.467C275.25 160.893 238.425 197.717 193 197.717C147.575 197.717 110.75 160.893 110.75 115.467Z" stroke="#3E9AF8" stroke-width="1.5"/>
<path d="M153.738 150.724V118.397" stroke="#3E9AF8" stroke-width="4.6879" stroke-linecap="round"/>
<path d="M230.016 150.919V118.592" stroke="#3E9AF8" stroke-width="4.6879" stroke-linecap="round"/>
<circle cx="220.557" cy="89.1806" r="18.4438" stroke="#3E9AF8" stroke-width="4.6879" stroke-linejoin="round"/>
<path d="M210.385 89.0575H230.505M213.081 85.0444V93.3162M228.085 85.0444V93.3162" stroke="#3E9AF8" stroke-width="4.6879" stroke-linecap="round"/>
<path d="M213.217 84.8003V93.0721M228.221 84.8003V93.0721" stroke="#3E9AF8" stroke-width="5.85987" stroke-linecap="round"/>
<path d="M156.18 110.584C156.18 111.879 155.131 112.928 153.836 112.928C152.542 112.928 151.492 111.879 151.492 110.584C151.492 109.29 152.542 108.24 153.836 108.24C155.131 108.24 156.18 109.29 156.18 110.584Z" fill="#3E9AF8"/>
<rect x="144.656" y="151.017" width="94.1486" height="11.5244" rx="3.12527" stroke="#3E9AF8" stroke-width="4.6879"/>
<path d="M200.13 93.981H147.781C147.35 93.981 147 94.3308 147 94.7623V102.185C147 102.616 147.35 102.966 147.781 102.966H208.333" stroke="#3E9AF8" stroke-width="4.6879" stroke-linecap="round"/>
<path d="M192.999 86.9489C194.294 86.9489 195.343 85.8995 195.343 84.605C195.343 83.3105 194.294 82.261 192.999 82.261V86.9489ZM158.328 86.9489H192.999V82.261H158.328V86.9489ZM159.891 95.5434V85.3863H155.203V95.5434H159.891ZM158.328 82.261C156.602 82.261 155.203 83.6603 155.203 85.3863H159.891C159.891 86.2493 159.191 86.9489 158.328 86.9489V82.261Z" fill="#3E9AF8"/>
<rect x="169.853" y="115.076" width="44.3397" height="35.9406" rx="3.51592" stroke="#3E9AF8" stroke-width="4.6879"/>
<path d="M191.926 115.077V149.943" stroke="#3E9AF8" stroke-width="4.6879" stroke-linecap="round"/>
<path d="M187.551 0.467285V16.4673" stroke="#3E9AF8" stroke-width="1.5"/>
<line y1="-0.75" x2="70.773" y2="-0.75" transform="matrix(1 -4.37905e-08 -4.36321e-08 -1 21.2305 111.178)" stroke="#3E9AF8" stroke-width="1.5"/>
<path d="M188.232 15.461C175.49 15.429 162.866 17.9157 151.085 22.7788C139.304 27.6418 128.596 34.7857 119.575 43.801C110.554 52.8164 103.397 63.5262 98.5137 75.317C93.6306 87.1078 91.1175 99.7478 91.1183 112.513L92.4658 112.513C92.465 99.9253 94.9431 87.461 99.7582 75.8343C104.573 64.2075 111.631 53.6467 120.526 44.7567C129.422 35.8667 139.981 28.8223 151.598 24.0269C163.216 19.2314 175.663 16.7793 188.228 16.8108L188.232 15.461Z" fill="#3E9AF8"/>
<path d="M10.6159 121.949C16.0635 121.949 20.4819 117.524 20.4819 112.063C20.4819 106.603 16.0635 102.178 10.6159 102.178C5.16842 102.178 0.75 106.603 0.75 112.063C0.75 117.524 5.16842 121.949 10.6159 121.949Z" fill="#F4F8FE" stroke="#3E9AF8" stroke-width="1.5"/>
</svg>

<svg width="285" height="210" fill="none" xmlns="http://www.w3.org/2000/svg"><path d="M110.75 115.467c0-45.425 36.825-82.25 82.25-82.25s82.25 36.825 82.25 82.25c0 45.426-36.825 82.25-82.25 82.25s-82.25-36.824-82.25-82.25Z" stroke="#3E9AF8" stroke-width="1.5"/><path d="M153.738 150.724v-32.327M230.016 150.919v-32.327" stroke="#3E9AF8" stroke-width="4.688" stroke-linecap="round"/><circle cx="220.557" cy="89.181" r="18.444" stroke="#3E9AF8" stroke-width="4.688" stroke-linejoin="round"/><path d="M210.385 89.058h20.12m-17.424-4.014v8.272m15.004-8.272v8.272" stroke="#3E9AF8" stroke-width="4.688" stroke-linecap="round"/><path d="M213.217 84.8v8.272m15.004-8.272v8.272" stroke="#3E9AF8" stroke-width="5.86" stroke-linecap="round"/><path d="M156.18 110.584a2.343 2.343 0 1 1-4.687.001 2.343 2.343 0 0 1 4.687-.001Z" fill="#3E9AF8"/><rect x="144.656" y="151.017" width="94.149" height="11.524" rx="3.125" stroke="#3E9AF8" stroke-width="4.688"/><path d="M200.13 93.981h-52.349a.781.781 0 0 0-.781.781v7.423c0 .431.35.781.781.781h60.552" stroke="#3E9AF8" stroke-width="4.688" stroke-linecap="round"/><path d="M192.999 86.949a2.344 2.344 0 1 0 0-4.688v4.688Zm-34.671 0h34.671V82.26h-34.671v4.688Zm1.563 8.594V85.386h-4.688v10.157h4.688Zm-1.563-13.282a3.125 3.125 0 0 0-3.125 3.125h4.688c0 .863-.7 1.563-1.563 1.563V82.26Z" fill="#3E9AF8"/><rect x="169.853" y="115.076" width="44.34" height="35.941" rx="3.516" stroke="#3E9AF8" stroke-width="4.688"/><path d="M191.926 115.077v34.866" stroke="#3E9AF8" stroke-width="4.688" stroke-linecap="round"/><path d="M187.551.467v16" stroke="#3E9AF8" stroke-width="1.5"/><path transform="matrix(1 0 0 -1 21.23 111.178)" stroke="#3E9AF8" stroke-width="1.5" d="M0-.75h70.773"/><path d="M188.232 15.461a96.718 96.718 0 0 0-37.147 7.318 96.86 96.86 0 0 0-31.51 21.022 97.064 97.064 0 0 0-21.061 31.516 97.198 97.198 0 0 0-7.396 37.196h1.348a95.847 95.847 0 0 1 7.292-36.679 95.71 95.71 0 0 1 20.768-31.077 95.52 95.52 0 0 1 31.072-20.73 95.374 95.374 0 0 1 36.63-7.216l.004-1.35Z" fill="#3E9AF8"/><path d="M10.616 121.949c5.448 0 9.866-4.425 9.866-9.886 0-5.46-4.418-9.885-9.866-9.885-5.448 0-9.866 4.425-9.866 9.885 0 5.461 4.418 9.886 9.866 9.886Z" fill="#F4F8FE" stroke="#3E9AF8" stroke-width="1.5"/></svg>
